X:305
T:Awake My Soul, An Offering Bring
%%stretchlast false
M:4/4
L:1/4
K:Eb clef=C1
"^ii"[Ff] [Fca] "^iii"[FGcb] "^ii"[FAcc'] | [Fcec']/ "^IV¹"[Ccea]/ "^I"[EBeg] "^ii"[FAcf] "^VI"[CGc=e] | "^vi"[CGcg]/ "^V/ii"[C=Ecg]/ "^ii"[Fca] [Fca]/ "^iii"[FGcb]/ "^ii"[FAcc'] | "^vi+"[Aca]/ [Aca]/ "^i"[EBea] "^I"[EBeg] "^IV"[Acea]2 | [Acea] [Acea]/ [Acea]/ "^I"[EBeg] | [EGeb] "^ii"[FAca] [Fca]/ [Fca]/ "^VI"[C=Ecg] | "^vi"[Ccg]/ [Ccg]/ "^IV"[A,Aec']/ [A,Bec']/ [A,cec']/ [A,cea]/ "^I"[EBeg] | "^ii"[Fcf] "^ii²"[CAcf] "^VI"[CGc=e]/ "^V/ii"[CGc=e]/ "^ii"[F,Fcf]2 | "^IV"[Acea] [Acea]/ [Acea]/ "^I"[EBeg] | [EGeb] "^ii"[FAca] [Fca]/ [Fca]/ "^VI"[C=Ecg] | "^vi"[Ccg]/ [Ccg]/ "^IV"[A,Aec']/ [A,Bec']/ [A,cea]/ [A,cea]/ "^I"[EBeg] | "^ii"[Fcf] "^ii²"[CAcf] "^VI"[CGc=e]/ "^VI7"[CGB=e]/ "^II"[F,F=Af]2 |]
